X:689
T:Mrs. Crawford
R:Slow Strathspey
B:The Athole Collection
M:C
L:1/8
Q:1/4=140
K:D
G|F<A A>B B/A/G/F/ AB/c/|d>ef>e d<B B>d|F<AA<B B/A/G/F/ d>B|
B/A/G/F/ A/G/ F/>E/ D2D:|
f/g/|a>ba>f d>Ad>f|e>f g/f/e/d/ B2 Bf/g/|a>ba>f d>Ad>f|ef/g/ a/g/f/e/ d2 df/g/|
a>ba>f d>Ad>f|e>f g/f/e/d/ B2 Bc/d/|A>BA>F A>d B/A/G/F/|
E/D/E/F/ A/G/F/E/ D2 D2||

